projectsedona-adaptive/source/img/sprites/icon-twitter.svg

<svg width="17.500000" height="14.573242" viewBox="0 0 17.5 14.5732" fill="none" xmlns="http://www.w3.org/2000/svg" xmlns:xlink="http://www.w3.org/1999/xlink">
	<desc>
			Created with Pixso.
	</desc>
	<defs>
		<linearGradient id="paint_linear_1335_228_0" x1="8.750001" y1="0.000000" x2="8.750001" y2="14.573275" gradientUnits="userSpaceOnUse">
			<stop stop-color="#FFFFFF"/>
			<stop offset="1.000000" stop-color="#E1E1E1"/>
		</linearGradient>
	</defs>
	<path id="icon-twitter.svg" d="M11.3 0.166748C13 -0.333252 14.4 0.366699 15 1.26685C15.7 1.06665 16.4 0.766846 17.1 0.56665C17.1 1.3667 16.6 2.06665 16.2 2.26685C16.9 2.4668 17.5 1.76685 17.5 1.76685C17.3 2.76685 16.5 3.4668 15.9 3.76685C15.7 10.3667 12.6 14.7668 5.5 14.5667C5 14.5667 5.59998 14.5667 5 14.5667C4.59998 14.5667 0.700012 14.1667 0 12.7668C2.29999 12.9668 4 12.3667 4.79999 11.6667C3.79999 11.3667 2 11.1667 1.70001 8.76685C2.09998 8.8667 2.29999 8.9668 3 8.8667C1.79999 8.06665 0.400024 7.3667 0.5 5.16675C0.799988 5.4668 1.59998 5.66675 1.90002 5.66675C1.20001 5.4668 -0.0999756 2.3667 1 0.866699C2.90002 2.66675 4.79999 4.3667 8.40002 4.56665C8.5 2.26685 9.5 0.766846 11.3 0.166748Z" fill="#FFFFFF" fill-opacity="1.000000" fill-rule="nonzero"/>
	<path id="icon-twitter.svg" d="M11.3 0.166748C13 -0.333252 14.4 0.366699 15 1.26685C15.7 1.06665 16.4 0.766846 17.1 0.56665C17.1 1.3667 16.6 2.06665 16.2 2.26685C16.9 2.4668 17.5 1.76685 17.5 1.76685C17.3 2.76685 16.5 3.4668 15.9 3.76685C15.7 10.3667 12.6 14.7668 5.5 14.5667C5 14.5667 5.59998 14.5667 5 14.5667C4.59998 14.5667 0.700012 14.1667 0 12.7668C2.29999 12.9668 4 12.3667 4.79999 11.6667C3.79999 11.3667 2 11.1667 1.70001 8.76685C2.09998 8.8667 2.29999 8.9668 3 8.8667C1.79999 8.06665 0.400024 7.3667 0.5 5.16675C0.799988 5.4668 1.59998 5.66675 1.90002 5.66675C1.20001 5.4668 -0.0999756 2.3667 1 0.866699C2.90002 2.66675 4.79999 4.3667 8.40002 4.56665C8.5 2.26685 9.5 0.766846 11.3 0.166748Z" fill="url(#paint_linear_1335_228_0)" fill-opacity="0" fill-rule="nonzero"/>
</svg>

<svg xmlns="http://www.w3.org/2000/svg" width="18" height="15" fill="none" viewBox="0 0 18 15">
  <path fill="#FFF" d="M11.3.17c1.7-.5 3.1.2 3.7 1.1.7-.2 1.4-.5 2.1-.7 0 .8-.5 1.5-.9 1.7.7.2 1.3-.5 1.3-.5-.2 1-1 1.7-1.6 2-.2 6.6-3.3 11-10.4 10.8H5c-.4 0-4.3-.4-5-1.8 2.3.2 4-.4 4.8-1.1-1-.3-2.8-.5-3.1-2.9.4.1.6.2 1.3.1-1.2-.8-2.6-1.5-2.5-3.7.3.3 1.1.5 1.4.5-.7-.2-2-3.3-.9-4.8 1.9 1.8 3.8 3.5 7.4 3.7.1-2.3 1.1-3.8 2.9-4.4Z"/>
  <path d="M11.3.17c1.7-.5 3.1.2 3.7 1.1.7-.2 1.4-.5 2.1-.7 0 .8-.5 1.5-.9 1.7.7.2 1.3-.5 1.3-.5-.2 1-1 1.7-1.6 2-.2 6.6-3.3 11-10.4 10.8H5c-.4 0-4.3-.4-5-1.8 2.3.2 4-.4 4.8-1.1-1-.3-2.8-.5-3.1-2.9.4.1.6.2 1.3.1-1.2-.8-2.6-1.5-2.5-3.7.3.3 1.1.5 1.4.5-.7-.2-2-3.3-.9-4.8 1.9 1.8 3.8 3.5 7.4 3.7.1-2.3 1.1-3.8 2.9-4.4Z"/>
</svg>
